assets/images/me_section/desktop-frame.svg

<svg width="586" height="354" viewBox="0 0 586 354" fill="none" xmlns="http://www.w3.org/2000/svg">
<g clip-path="url(#clip0_34_1555)">
<path d="M88.8662 329.308H160.085V334.823H88.8662V329.308Z" fill="white" stroke="#262626" stroke-width="0.787818" stroke-miterlimit="10"/>
<path d="M132.038 301.892C132.038 301.892 122.9 309.928 111.083 306.304C99.2652 302.68 62.7105 290.862 62.7105 290.862L74.0551 280.778C74.0551 280.778 112.658 280.778 131.093 278.888L140.547 287.711L132.038 301.892Z" fill="white" stroke="#262626" stroke-width="0.787818" stroke-miterlimit="10"/>
<path d="M85.0845 194.906C85.0845 194.906 75.3156 209.244 90.2841 228.94C105.253 248.635 127.312 275.421 127.312 275.421C127.312 275.421 138.341 292.753 132.038 301.734L175.684 260.295L85.0845 194.906Z" fill="white" stroke="#262626" stroke-width="0.787818" stroke-miterlimit="10"/>
<path d="M244.854 184.822L335.296 287.396C335.296 287.396 363.657 320.484 352.628 339.392C341.598 358.3 316.703 353.888 300.001 346.64C283.3 339.392 85.0847 195.064 85.0847 195.064L248.163 55.4624L325.842 113.918L244.854 184.822Z" fill="white" stroke="#262626" stroke-width="0.787818" stroke-miterlimit="10"/>
<path d="M198.688 147.322L163.709 126.524L112.659 171.429L145.905 197.27L198.688 147.322Z" fill="#FF6B00" stroke="#262626" stroke-width="0.787818" stroke-miterlimit="10"/>
<path d="M220.117 147.322L133.142 88.0781L80.3583 134.559L167.333 197.27L220.117 147.322Z" fill="white" stroke="#262626" stroke-width="0.787818" stroke-miterlimit="10"/>
<path d="M154.727 119.748L135.505 135.977L187.185 178.204L221.062 146.219L154.727 119.748Z" fill="#262626"/>
<path d="M318.437 328.363L171.43 210.032L204.518 177.102L318.437 328.363Z" fill="#262626"/>
<path d="M371.062 278.257L189.234 66.3344L136.293 112.816L318.436 328.363L371.062 278.257Z" fill="white" stroke="#262626" stroke-width="0.787818" stroke-miterlimit="10"/>
<path d="M248.163 117.7L362.397 24.8951C364.76 49.3174 375.16 74.0549 375.16 74.0549L486.399 178.992L448.111 212.238L450.632 214.287C468.91 232.564 450.632 254.623 450.632 254.623L348.059 344.749C360.979 326.944 345.38 301.734 345.38 301.734L244.539 184.665C214.917 148.898 248.163 117.7 248.163 117.7Z" fill="white" stroke="#262626" stroke-width="0.787818" stroke-miterlimit="10"/>
<path d="M435.034 268.488C435.034 268.488 444.487 249.423 429.204 231.303C414.078 213.183 276.21 103.992 276.21 103.992L294.802 85.557L450.948 214.444C450.948 214.444 466.231 229.57 454.887 248.478L450.948 254.78L435.034 268.488Z" fill="#FF6B00" stroke="#262626" stroke-width="0.787818" stroke-miterlimit="10"/>
<path d="M595.59 227.207C595.59 227.207 620.328 257.932 605.675 285.033C591.021 312.134 554.151 299.056 550.055 295.589C545.8 292.281 339.55 123.057 339.55 123.057C339.55 123.057 325.054 108.719 298.268 105.725C267.385 102.259 248.163 117.858 248.163 117.858L362.396 25.0527C362.396 25.0527 397.533 5.67234 440.705 32.9308C483.878 60.1893 610.244 161.188 610.244 161.188L581.095 202.784C581.095 202.784 587.555 213.971 595.59 227.207Z" fill="white" stroke="#262626" stroke-width="0.787818" stroke-miterlimit="10"/>
<mask id="mask0_34_1555" style="mask-type:alpha" maskUnits="userSpaceOnUse" x="247" y="17" width="364" height="285">
<path d="M595.546 226.834C595.546 226.834 620.283 257.559 605.63 284.66C590.976 311.761 554.106 298.684 550.01 295.217C545.755 291.908 339.505 122.685 339.505 122.685C339.505 122.685 325.009 108.347 298.223 105.353C267.341 101.887 248.118 117.485 248.118 117.485L362.351 24.6804C362.351 24.6804 397.488 5.30009 440.661 32.5586C483.833 59.8171 610.199 160.815 610.199 160.815L581.05 202.412C581.05 202.412 587.51 213.599 595.546 226.834Z" fill="white" stroke="#262626" stroke-width="0.787818" stroke-miterlimit="10"/>
</mask>
<g mask="url(#mask0_34_1555)">
<g clip-path="url(#clip1_34_1555)">
<path d="M453.707 96.0537L412.932 99.6327L405.789 141.686L363.526 146.159L370.669 103.51L326.918 107.387L334.061 63.2464L377.812 60.2639L420.372 57.2815L427.515 14.632L468.29 12.5442L475.731 -29.807L515.017 -31L507.577 10.4565L500.434 51.6147L461.147 54.299L453.707 96.0537Z" fill="#666666"/>
<path d="M446.564 137.212L439.719 178.37L398.944 183.44L405.79 141.686L446.564 137.212Z" fill="#262626"/>
<path d="M493.292 92.4748L486.149 133.037L446.564 137.212L453.707 96.0538L493.292 92.4748Z" fill="#262626"/>
<path d="M523.946 129.159L516.803 168.826L479.005 173.598L486.148 133.036L523.946 129.159Z" fill="#262626"/>
<path d="M531.09 89.194L493.291 92.4748L500.434 51.6148L538.53 48.9305L575.138 46.2463L567.995 85.9133L560.554 125.282L523.946 129.159L531.09 89.194Z" fill="#FF6B00"/>
<path d="M319.775 150.931L363.526 146.159L356.681 188.809L398.943 183.44L391.8 224.897L349.538 230.862L305.787 237.125L312.93 194.177L267.393 199.844L220.07 205.809L226.916 160.774L274.238 155.703L281.381 111.264L326.918 107.387L319.775 150.931Z" fill="#FF6B00"/>
<path d="M233.761 115.44L240.904 69.8079L288.226 66.5272L281.381 111.264L233.761 115.44Z" fill="#262626"/>
<path d="M253.702 286.933L260.548 243.687L305.787 237.125L298.941 279.775L253.702 286.933Z" fill="#262626"/>
<path d="M439.718 178.37L479.005 173.598L471.862 213.564L464.719 253.231L425.432 259.494L384.955 266.055L391.8 224.897L432.575 219.23L439.718 178.37Z" fill="#262626"/>
<path d="M546.566 202.827L509.66 208.195L516.803 168.826L553.411 164.054L546.566 202.827Z" fill="#262626"/>
<path d="M596.269 121.405L589.126 159.879L553.411 164.054L560.554 125.282L596.269 121.405Z" fill="#262626"/>
<path d="M288.227 66.5272L295.37 21.4917L341.204 19.1057L334.061 63.2465L288.227 66.5272Z" fill="#262626"/>
</g>
</g>
<path d="M581.883 221.219L555.097 248.478L600.003 292.123C600.003 291.965 624.425 262.186 581.883 221.219Z" fill="#262626"/>
<path d="M568.017 210.347L637.345 128.099C637.345 128.099 663.973 156.618 669.961 173.95C677.996 197.27 666.809 211.293 666.809 211.293L600.002 291.965C600.002 291.965 611.505 283.299 598.742 249.738C586.61 217.753 568.017 210.347 568.017 210.347Z" fill="white" stroke="#262626" stroke-width="0.787818" stroke-miterlimit="10"/>
<path d="M347.743 100.053C347.743 100.053 309.14 78.4667 279.991 92.1747L341.283 42.0695L388.395 51.6809L347.743 100.053Z" fill="#262626"/>
<path d="M449.528 72.952L355.148 0.472717L292.753 55.4624L387.291 132.038L449.528 72.952Z" fill="white" stroke="#262626" stroke-width="0.787818" stroke-miterlimit="10"/>
<path d="M88.8671 280.778L107.145 334.823H20.327L0.473961 280.778H88.8671Z" fill="white" stroke="#262626" stroke-width="0.787818" stroke-miterlimit="10"/>
<path d="M154.255 280.778C154.255 280.778 157.564 276.997 148.74 260.138C139.917 243.121 115.494 220.431 115.494 220.431C115.494 220.431 105.568 210.505 103.835 208.772L175.684 260.61L154.255 280.778Z" fill="#262626"/>
<circle cx="12" cy="12" r="11.625" transform="matrix(-1 0 0 1 65.2695 297)" fill="white" stroke="#262626" stroke-width="0.75"/>
</g>
<defs>
<clipPath id="clip0_34_1555">
<rect width="673.269" height="353.1" fill="white" transform="matrix(-1 0 0 1 673.27 0)"/>
</clipPath>
<clipPath id="clip1_34_1555">
<rect width="376.199" height="317.933" fill="white" transform="matrix(1 0 0 -1 220.07 286.933)"/>
</clipPath>
</defs>
</svg>

<svg width="586" height="354" fill="none" xmlns="http://www.w3.org/2000/svg"><g clip-path="url(#a)"><path d="M88.866 329.308h71.219v5.515H88.866v-5.515zM132.038 301.892s-9.138 8.036-20.955 4.412c-11.818-3.624-48.372-15.442-48.372-15.442l11.344-10.084s38.603 0 57.038-1.89l9.454 8.823-8.509 14.181z" fill="#fff" stroke="#262626" stroke-width=".788" stroke-miterlimit="10"/><path d="M85.085 194.906s-9.77 14.338 5.2 34.034c14.968 19.695 37.027 46.481 37.027 46.481s11.029 17.332 4.726 26.313l43.646-41.439-90.6-65.389z" fill="#fff" stroke="#262626" stroke-width=".788" stroke-miterlimit="10"/><path d="m244.854 184.822 90.442 102.574s28.361 33.088 17.332 51.996c-11.03 18.908-35.925 14.496-52.627 7.248C283.3 339.392 85.085 195.064 85.085 195.064L248.163 55.462l77.679 58.456-80.988 70.904z" fill="#fff" stroke="#262626" stroke-width=".788" stroke-miterlimit="10"/><path d="m198.688 147.322-34.979-20.798-51.05 44.905 33.246 25.841 52.783-49.948z" fill="#FF6B00" stroke="#262626" stroke-width=".788" stroke-miterlimit="10"/><path d="m220.117 147.322-86.975-59.244-52.784 46.481 86.975 62.711 52.784-49.948z" fill="#fff" stroke="#262626" stroke-width=".788" stroke-miterlimit="10"/><path d="m154.727 119.748-19.222 16.229 51.68 42.227 33.877-31.985-66.335-26.471zM318.437 328.363 171.43 210.032l33.088-32.93 113.919 151.261z" fill="#262626"/><path d="M371.062 278.257 189.234 66.334l-52.941 46.482 182.143 215.547 52.626-50.106z" fill="#fff" stroke="#262626" stroke-width=".788" stroke-miterlimit="10"/><path d="m248.163 117.7 114.234-92.805c2.363 24.422 12.763 49.16 12.763 49.16l111.239 104.937-38.288 33.246 2.521 2.049c18.278 18.277 0 40.336 0 40.336l-102.573 90.126c12.92-17.805-2.679-43.015-2.679-43.015L244.539 184.665c-29.622-35.767 3.624-66.965 3.624-66.965z" fill="#fff" stroke="#262626" stroke-width=".788" stroke-miterlimit="10"/><path d="M435.034 268.488s9.453-19.065-5.83-37.185c-15.126-18.12-152.994-127.311-152.994-127.311l18.592-18.435 156.146 128.887s15.283 15.126 3.939 34.034l-3.939 6.302-15.914 13.708z" fill="#FF6B00" stroke="#262626" stroke-width=".788" stroke-miterlimit="10"/><path d="M595.59 227.207s24.738 30.725 10.085 57.826c-14.654 27.101-51.524 14.023-55.62 10.556-4.255-3.308-210.505-172.532-210.505-172.532s-14.496-14.338-41.282-17.332c-30.883-3.466-50.105 12.133-50.105 12.133l114.233-92.805s35.137-19.38 78.309 7.878c43.173 27.258 169.539 128.257 169.539 128.257l-29.149 41.596s6.46 11.187 14.495 24.423z" fill="#fff" stroke="#262626" stroke-width=".788" stroke-miterlimit="10"/><mask id="b" style="mask-type:alpha" maskUnits="userSpaceOnUse" x="247" y="17" width="364" height="285"><path d="M595.546 226.834s24.737 30.725 10.084 57.826c-14.654 27.101-51.524 14.024-55.62 10.557-4.255-3.309-210.505-172.532-210.505-172.532s-14.496-14.338-41.282-17.332c-30.882-3.466-50.105 12.132-50.105 12.132L362.351 24.68s35.137-19.38 78.31 7.879c43.172 27.258 169.538 128.256 169.538 128.256l-29.149 41.597s6.46 11.187 14.496 24.422z" fill="#fff" stroke="#262626" stroke-width=".788" stroke-miterlimit="10"/></mask><g clip-path="url(#c)" mask="url(#b)"><path d="m453.707 96.054-40.775 3.579-7.143 42.053-42.263 4.473 7.143-42.649-43.751 3.877 7.143-44.14 43.751-2.983 42.56-2.983 7.143-42.649 40.775-2.088 7.441-42.351L515.017-31l-7.44 41.456-7.143 41.159-39.287 2.684-7.44 41.755z" fill="#666"/><path d="m446.564 137.212-6.845 41.158-40.775 5.07 6.846-41.754 40.774-4.474zM493.292 92.475l-7.143 40.562-39.585 4.175 7.143-41.158 39.585-3.58z" fill="#262626"/><path d="m523.946 129.159-7.143 39.667-37.798 4.772 7.143-40.562 37.798-3.877z" fill="#262626"/><path d="m531.09 89.194-37.799 3.28 7.143-40.86 38.096-2.683 36.608-2.685-7.143 39.667-7.441 39.369-36.608 3.877 7.144-39.965zM319.775 150.931l43.751-4.772-6.845 42.65 42.262-5.369-7.143 41.457-42.262 5.965-43.751 6.263 7.143-42.948-45.537 5.667-47.323 5.965 6.846-45.035 47.322-5.071 7.143-44.439 45.537-3.877-7.143 43.544z" fill="#FF6B00"/><path d="m233.761 115.44 7.143-45.632 47.322-3.28-6.845 44.736-47.62 4.176zM253.702 286.933l6.846-43.246 45.239-6.562-6.846 42.65-45.239 7.158zM439.718 178.37l39.287-4.772-7.143 39.966-7.143 39.667-39.287 6.263-40.477 6.561 6.845-41.158 40.775-5.667 7.143-40.86zM546.566 202.827l-36.906 5.368 7.143-39.369 36.608-4.772-6.845 38.773zM596.269 121.405l-7.143 38.474-35.715 4.175 7.143-38.772 35.715-3.877zM288.227 66.527l7.143-45.035 45.834-2.386-7.143 44.14-45.834 3.281z" fill="#262626"/></g><path d="m581.883 221.219-26.786 27.259 44.906 43.645c0-.158 24.422-29.937-18.12-70.904z" fill="#262626"/><path d="m568.017 210.347 69.328-82.248s26.628 28.519 32.616 45.851c8.035 23.32-3.152 37.343-3.152 37.343l-66.807 80.672s11.503-8.666-1.26-42.227c-12.132-31.985-30.725-39.391-30.725-39.391z" fill="#fff" stroke="#262626" stroke-width=".788" stroke-miterlimit="10"/><path d="M347.743 100.053s-38.603-21.586-67.752-7.878l61.292-50.105 47.112 9.61-40.652 48.373z" fill="#262626"/><path d="M449.528 72.952 355.148.472l-62.395 54.99 94.538 76.576 62.237-59.086zM88.867 280.778l18.278 54.045H20.327L.474 280.778h88.393z" fill="#fff" stroke="#262626" stroke-width=".788" stroke-miterlimit="10"/><path d="M154.255 280.778s3.309-3.781-5.515-20.64c-8.823-17.017-33.246-39.707-33.246-39.707l-11.659-11.659 71.849 51.838-21.429 20.168z" fill="#262626"/><circle cx="12" cy="12" r="11.625" transform="matrix(-1 0 0 1 65.27 297)" fill="#fff" stroke="#262626" stroke-width=".75"/></g><defs><clipPath id="a"><path fill="#fff" transform="matrix(-1 0 0 1 673.27 0)" d="M0 0h673.269v353.1H0z"/></clipPath><clipPath id="c"><path fill="#fff" transform="matrix(1 0 0 -1 220.07 286.933)" d="M0 0h376.199v317.933H0z"/></clipPath></defs></svg>
